symbolic/32x32/apps/com.amazon.Workspaces.svg

<svg xmlns="http://www.w3.org/2000/svg" width="32" height="32" version="1.1">
 <path style="opacity:0.2" d="M 9.1582031,4.3652344 3,7.9589844 v 7.1093746 l 2.9960938,1.78125 v -7.1093746 -0.00391 l 0.00781,0.00391 5.9414058,-3.7539063 z M 20,5.0625 16,7.3691406 9,11.421875 V 19.5 24.140625 L 20,30.5 31,24.140625 v -12.71875 z"/>
 <path style="fill:#ff7857" d="m 20,16.781251 5.5,3.174616 5.5,3.184759 V 10.421877 Z"/>
 <path style="fill:#d04134" d="M 25.5,19.955867 20,16.781251 V 29.5 l 11,-6.359374 z"/>
 <path style="fill:#ffb99f" d="m 16,6.37 v 8.1 l 4,2.311251 11,-6.359374 -11,-6.3593747 z"/>
 <path style="fill:#ff7857" d="M 9,23.140626 20,29.5 V 16.781251 L 16,14.47 9,18.5 Z"/>
 <path style="fill:#ff7857" d="M 16,14.47 V 6.37 L 9,10.421876 Z"/>
 <path style="fill:#d04134" d="M 16,14.47 9,10.421877 V 18.5 Z"/>
 <path style="fill:#ff7857" d="M 3,6.9595789 6.0043238,8.7411227 11.945,4.98681 9.1575674,3.3659595 Z"/>
 <path style="fill:#d04134" d="M 3,14.068452 5.9956761,15.85 V 8.7411227 8.7324715 L 3,6.9595789 Z"/>
 <path style="fill:#822826" d="M 5.9956761,15.85 3,6.9595789 v 7.1088731 z"/>
 <path style="fill:#ffffff;opacity:0.2" d="M 9.1582031 3.3652344 L 3 6.9589844 L 3 7.9589844 L 9.1582031 4.3652344 L 11.121094 5.5078125 L 11.945312 4.9863281 L 9.1582031 3.3652344 z M 20 4.0625 L 16 6.3691406 L 9 10.421875 L 9 11.421875 L 16 7.3691406 L 20 5.0625 L 31 11.421875 L 31 10.421875 L 20 4.0625 z"/>
 <path style="opacity:0.2" d="M 6.0039062,8.7402344 3.8496094,7.4628906 3,7.9589844 l 3.0039062,1.78125 c 0,0 4.176e-4,-0.9991117 0,-1 z m 3.859375,2.1816406 -0.8632812,0.5 7,4.048828 4,2.310547 5.5,3.173828 5.5,3.185547 v -1 L 25.5,19.955078 20,16.78125 16,14.470703 Z"/>
</svg>

<svg xmlns="http://www.w3.org/2000/svg" width="32" height="32"><path style="opacity:.2" d="M9.158 4.365 3 7.96v7.11l2.996 1.78V9.737l.008.004 5.941-3.754zM20 5.062 16 7.37l-7 4.053V24.14l11 6.36 11-6.36V11.423z"/><path style="fill:#ff7857" d="m20 16.781 5.5 3.175L31 23.14V10.42z"/><path style="fill:#d04134" d="M25.5 19.956 20 16.78V29.5l11-6.36z"/><path style="fill:#ffb99f" d="M16 6.37v8.1l4 2.311 11-6.36-11-6.358z"/><path style="fill:#ff7857" d="m9 23.14 11 6.36V16.781l-4-2.311-7 4.03z"/><path style="fill:#ff7857" d="M16 14.47v-8.1l-7 4.052z"/><path style="fill:#d04134" d="m16 14.47-7-4.048V18.5z"/><path style="fill:#ff7857" d="M3 6.96 6.004 8.74l5.941-3.754-2.787-1.621z"/><path style="fill:#d04134" d="m3 14.068 2.996 1.782V8.732L3 6.96z"/><path style="fill:#822826" d="M5.996 15.85 3 6.96v7.108z"/><path style="fill:#fff;opacity:.2" d="M9.158 3.365 3 6.96v1l6.158-3.594 1.963 1.143.824-.522-2.787-1.62zM20 4.062 16 6.37l-7 4.053v1l7-4.053 4-2.306 11 6.359v-1l-11-6.36z"/><path style="opacity:.2" d="M6.004 8.74 3.85 7.463 3 7.959 6.004 9.74v-1zm3.86 2.182-.864.5 7 4.049 4 2.31 5.5 3.174 5.5 3.186v-1l-5.5-3.186-5.5-3.174-4-2.31z"/></svg>
